icons/op-watched-24.svg

<svg width="24" height="24" viewBox="0 0 24 24" fill="none" xmlns="http://www.w3.org/2000/svg">
<path d="M4 11.6815V12.3185C7.70196 18.5605 16.298 18.5605 20 12.3185V11.6815C16.298 5.43949 7.70196 5.43949 4 11.6815ZM12 15.758C9.96078 15.758 8.29804 14.0701 8.29804 12C8.29804 9.92994 9.96078 8.27389 12 8.27389C14.0392 8.27389 15.702 9.92994 15.702 12C15.702 14.0701 14.0392 15.758 12 15.758ZM13.851 12C13.851 13.051 13.0039 13.879 12 13.879C10.9961 13.879 10.149 13.051 10.149 12C10.149 10.9809 10.9961 10.121 12 10.121C13.0039 10.121 13.851 10.9809 13.851 12Z" fill="black"/>
</svg>

<svg xmlns="http://www.w3.org/2000/svg" width="24" height="24" viewBox="0 0 24 24"><path d="M4 11.681v.638c3.702 6.242 12.298 6.242 16 0v-.638c-3.702-6.242-12.298-6.242-16 0Zm8 4.077c-2.039 0-3.702-1.688-3.702-3.758A3.71 3.71 0 0 1 12 8.274 3.71 3.71 0 0 1 15.702 12c0 2.07-1.663 3.758-3.702 3.758ZM13.851 12A1.868 1.868 0 0 1 12 13.879 1.868 1.868 0 0 1 10.149 12c0-1.019.847-1.879 1.851-1.879s1.851.86 1.851 1.879Z"/></svg>
